X: 15523
T: Glentanefinnane
R: polka
M: 2/4
K: Gmajor
|:d|e/f/e/d/ Bd/B/|GE EF/E/|DG F/G/A|BA A>d|
e/f/e/d/ B>A|GE EG/E/|DG F/G/A|BG G:|
|:A|BG dG|ef/e/ dG|BA/B/ dc/d/|eA AG/A/|
BG dG|ef/e/ dG|Bd/B/ AG/A/|BG G:|

